X:152
T:A la pointe de l'pe
R:Rondo
C:trad
A:Gascogne
O:France
M:2/4
L:1/8
Q:1/4=130
K:C
EE|A>G AB|cB AB|A z:||AB|c2 ed|B2 dc|
A>G AB|cB AB|c2 ed|B2 dc|AG/2A/2 BG|A z||
W:
W:L'autre jour m'en tais all
W:Un fltiau j'avais achet (bis)
W:Et le flt et le flt de mon fltiau (bis)
W:Et le rapataplan de mon tambour (bis)
W:
W:L'autre jour m'en tais all
W:Un violon j'avais achet (bis)
W:Et le jig et le jag de mon violon (bis)
W:Et le flt et le flt de mon fltiau (bis)
W:Et le rapataplan de mon tambour (bis)
%%vskip 0.5cm
%%sep
%%text Breton :
